contributed-vectors/diffuse.svg

<svg xmlns="http://www.w3.org/2000/svg" xml:space="preserve" style="fill-rule:evenodd;clip-rule:evenodd;stroke-linejoin:round;stroke-miterlimit:2" viewBox="0 0 192 192"><path d="M164.5 21.5c0-5.519-4.481-10-10-10h-133c-5.519 0-10 4.481-10 10v133c0 5.519 4.481 10 10 10h133c5.519 0 10-4.481 10-10v-133Z" style="fill:#fff" transform="translate(8 8)"/><path d="M96 29.5c36.702 0 66.5 29.798 66.5 66.5s-29.798 66.5-66.5 66.5S29.5 132.702 29.5 96 59.298 29.5 96 29.5Zm0 54.206c6.785 0 12.294 5.509 12.294 12.294S102.785 108.294 96 108.294 83.706 102.785 83.706 96 89.215 83.706 96 83.706Z" style="fill:#bd9aff" transform="matrix(.70153 0 0 .70153 28.653 28.653)"/></svg>

<?xml version="1.0" encoding="UTF-8" standalone="no"?>
<!DOCTYPE svg PUBLIC "-//W3C//DTD SVG 1.1//EN" "http://www.w3.org/Graphics/SVG/1.1/DTD/svg11.dtd">
<svg width="100%" height="100%" viewBox="0 0 192 192" version="1.1" xmlns="http://www.w3.org/2000/svg" xmlns:xlink="http://www.w3.org/1999/xlink" xml:space="preserve" xmlns:serif="http://www.serif.com/" style="fill-rule:evenodd;clip-rule:evenodd;stroke-linejoin:round;stroke-miterlimit:2;">
    <g id="Layer1">
        <g transform="matrix(1,0,0,1,8,8)">
            <path d="M164.5,21.5C164.5,15.981 160.019,11.5 154.5,11.5L21.5,11.5C15.981,11.5 11.5,15.981 11.5,21.5L11.5,154.5C11.5,160.019 15.981,164.5 21.5,164.5L154.5,164.5C160.019,164.5 164.5,160.019 164.5,154.5L164.5,21.5Z" style="fill:white;"/>
        </g>
        <g transform="matrix(0.701527,0,0,0.701527,28.6534,28.6534)">
            <path d="M96,29.5C132.702,29.5 162.5,59.298 162.5,96C162.5,132.702 132.702,162.5 96,162.5C59.298,162.5 29.5,132.702 29.5,96C29.5,59.298 59.298,29.5 96,29.5ZM96,83.706C102.785,83.706 108.294,89.215 108.294,96C108.294,102.785 102.785,108.294 96,108.294C89.215,108.294 83.706,102.785 83.706,96C83.706,89.215 89.215,83.706 96,83.706Z" style="fill:rgb(189,154,255);"/>
        </g>
    </g>
</svg>
